static/lottie-assets/pages/home/hero/acme-top.svg

<svg width="264" height="77" viewBox="0 0 264 77" fill="none" xmlns="http://www.w3.org/2000/svg">
<rect y="42" width="264" height="1" fill="#262626"/>
<circle cx="206" cy="16" r="15.6875" stroke="#333333" stroke-width="0.625"/>
<g clip-path="url(#clip0_32_264)">
<path d="M204.249 9.00061C201.187 9.78811 198.999 12.5881 198.999 15.9131C198.999 19.8506 202.149 23.0006 206.087 23.0006C209.412 23.0006 212.124 20.8131 212.999 17.7506C207.662 19.2381 202.762 14.3381 204.249 9.00061Z" fill="white"/>
</g>
<circle cx="164" cy="16" r="15.6875" stroke="#333333" stroke-width="0.625"/>
<circle cx="162.5" cy="14.5" r="4.5625" stroke="white" stroke-width="1.875"/>
<path d="M166 18L170 22" stroke="white" stroke-width="1.875" stroke-linecap="round"/>
<circle cx="248" cy="16" r="16" fill="white"/>
<g clip-path="url(#clip1_32_264)">
<path d="M253.553 23.7728C253.541 23.7446 252.358 20.8953 252.905 18.8532L253.919 15.0701C254.303 13.6367 254.102 12.1095 253.36 10.8243C252.618 9.53923 251.396 8.60149 249.962 8.21742C248.529 7.83335 247.002 8.03441 245.717 8.77638C244.431 9.51834 243.494 10.7404 243.11 12.1738L242.096 15.9569C241.549 17.999 239.099 19.8749 239.075 19.8932C239.033 19.9248 239.001 19.9675 238.982 20.0165C238.963 20.0654 238.959 20.1186 238.969 20.17C238.979 20.2215 239.003 20.269 239.039 20.3073C239.075 20.3456 239.121 20.373 239.171 20.3866L253.223 24.1517C253.274 24.1653 253.327 24.1644 253.377 24.1491C253.427 24.1339 253.472 24.1048 253.506 24.0654C253.541 24.0259 253.564 23.9775 253.572 23.9258C253.58 23.874 253.574 23.821 253.553 23.7728Z" fill="black"/>
<path d="M244.181 22.3091C244.125 22.7763 244.239 23.248 244.503 23.6377C244.767 24.0274 245.162 24.309 245.616 24.4308C246.071 24.5526 246.554 24.5064 246.977 24.3008C247.401 24.0951 247.735 23.7438 247.921 23.3113L244.181 22.3091Z" fill="black"/>
</g>
<circle cx="253.375" cy="9.375" r="4.125" fill="#E300BD" stroke="white" stroke-width="2"/>
<path d="M29.098 21L32.584 11.662H34.922L38.338 21H36.028L35.314 18.858H32.024L31.31 21H29.098ZM32.514 17.22H34.81L33.676 13.692L32.514 17.22ZM46.1858 17.962L47.6278 19.278C47.3664 19.6327 47.0304 19.9593 46.6198 20.258C46.2184 20.5567 45.7658 20.7947 45.2618 20.972C44.7578 21.1493 44.2164 21.238 43.6378 21.238C42.6951 21.238 41.8598 21.028 41.1318 20.608C40.4131 20.188 39.8484 19.614 39.4378 18.886C39.0364 18.1487 38.8358 17.3087 38.8358 16.366C38.8358 15.6753 38.9524 15.0313 39.1858 14.434C39.4191 13.8273 39.7458 13.3 40.1658 12.852C40.5951 12.404 41.1038 12.054 41.6918 11.802C42.2891 11.55 42.9471 11.424 43.6658 11.424C44.5244 11.424 45.2804 11.5827 45.9338 11.9C46.5871 12.2173 47.1284 12.6747 47.5578 13.272L46.1158 14.658C45.8358 14.266 45.5044 13.9533 45.1218 13.72C44.7391 13.4773 44.2818 13.356 43.7498 13.356C43.1898 13.356 42.7044 13.4913 42.2938 13.762C41.8924 14.0233 41.5798 14.378 41.3558 14.826C41.1411 15.274 41.0338 15.7687 41.0338 16.31C41.0338 16.8607 41.1411 17.3553 41.3558 17.794C41.5798 18.2327 41.8924 18.5827 42.2938 18.844C42.6951 19.096 43.1664 19.222 43.7078 19.222C44.1558 19.222 44.5291 19.1613 44.8278 19.04C45.1264 18.9187 45.3784 18.7647 45.5838 18.578C45.7984 18.382 45.9991 18.1767 46.1858 17.962ZM48.8551 21L49.2891 11.662H51.2911L53.7271 16.044L56.1071 11.662H58.1231L58.5571 21H56.4431L56.1771 14.896L54.2451 18.536H53.1531L51.1091 14.938L50.8711 21H48.8551ZM60.5 21V11.662H66.884V13.51H62.614V15.33H65.932V17.122H62.614V19.138H67.192V21H60.5ZM78.6964 17.962L80.1384 19.278C79.8771 19.6327 79.5411 19.9593 79.1304 20.258C78.7291 20.5567 78.2764 20.7947 77.7724 20.972C77.2684 21.1493 76.7271 21.238 76.1484 21.238C75.2057 21.238 74.3704 21.028 73.6424 20.608C72.9237 20.188 72.3591 19.614 71.9484 18.886C71.5471 18.1487 71.3464 17.3087 71.3464 16.366C71.3464 15.6753 71.4631 15.0313 71.6964 14.434C71.9297 13.8273 72.2564 13.3 72.6764 12.852C73.1057 12.404 73.6144 12.054 74.2024 11.802C74.7997 11.55 75.4577 11.424 76.1764 11.424C77.0351 11.424 77.7911 11.5827 78.4444 11.9C79.0977 12.2173 79.6391 12.6747 80.0684 13.272L78.6264 14.658C78.3464 14.266 78.0151 13.9533 77.6324 13.72C77.2497 13.4773 76.7924 13.356 76.2604 13.356C75.7004 13.356 75.2151 13.4913 74.8044 13.762C74.4031 14.0233 74.0904 14.378 73.8664 14.826C73.6517 15.274 73.5444 15.7687 73.5444 16.31C73.5444 16.8607 73.6517 17.3553 73.8664 17.794C74.0904 18.2327 74.4031 18.5827 74.8044 18.844C75.2057 19.096 75.6771 19.222 76.2184 19.222C76.6664 19.222 77.0397 19.1613 77.3384 19.04C77.6371 18.9187 77.8891 18.7647 78.0944 18.578C78.3091 18.382 78.5097 18.1767 78.6964 17.962ZM85.7676 21.238C85.0769 21.238 84.4376 21.1167 83.8496 20.874C83.2616 20.622 82.7436 20.272 82.2956 19.824C81.8569 19.376 81.5163 18.8533 81.2736 18.256C81.0309 17.6587 80.9096 17.0147 80.9096 16.324C80.9096 15.624 81.0309 14.98 81.2736 14.392C81.5163 13.7947 81.8569 13.272 82.2956 12.824C82.7343 12.376 83.2476 12.0307 83.8356 11.788C84.4329 11.536 85.0769 11.41 85.7676 11.41C86.4583 11.41 87.0976 11.536 87.6856 11.788C88.2736 12.0307 88.7869 12.376 89.2256 12.824C89.6736 13.272 90.0189 13.7947 90.2616 14.392C90.5043 14.98 90.6256 15.624 90.6256 16.324C90.6256 17.0147 90.5043 17.6587 90.2616 18.256C90.0189 18.8533 89.6736 19.376 89.2256 19.824C88.7869 20.272 88.2736 20.622 87.6856 20.874C87.0976 21.1167 86.4583 21.238 85.7676 21.238ZM85.7676 19.25C86.3183 19.25 86.7896 19.1147 87.1816 18.844C87.5829 18.5733 87.8863 18.214 88.0916 17.766C88.3063 17.318 88.4136 16.828 88.4136 16.296C88.4136 15.764 88.3063 15.2787 88.0916 14.84C87.8863 14.392 87.5829 14.0373 87.1816 13.776C86.7896 13.5053 86.3183 13.37 85.7676 13.37C85.2169 13.37 84.7409 13.5053 84.3396 13.776C83.9476 14.0373 83.6443 14.392 83.4296 14.84C83.2149 15.2787 83.1076 15.764 83.1076 16.296C83.1076 16.828 83.2149 17.318 83.4296 17.766C83.6443 18.214 83.9476 18.5733 84.3396 18.844C84.7409 19.1147 85.2169 19.25 85.7676 19.25ZM92.368 21V11.662H95.84C96.568 11.662 97.1747 11.7973 97.66 12.068C98.1454 12.3293 98.5094 12.684 98.752 13.132C98.9947 13.5707 99.116 14.056 99.116 14.588C99.116 15.1853 98.9807 15.7127 98.71 16.17C98.4487 16.6273 98.0754 16.9913 97.59 17.262L99.662 21H97.338L95.602 17.57H94.426V21H92.368ZM94.426 15.876H95.728C96.12 15.876 96.428 15.7593 96.652 15.526C96.876 15.2927 96.988 14.9987 96.988 14.644C96.988 14.2613 96.8714 13.958 96.638 13.734C96.414 13.51 96.1107 13.398 95.728 13.398H94.426V15.876ZM101.152 21V11.662H104.554C105.329 11.662 105.954 11.8067 106.43 12.096C106.915 12.376 107.27 12.7447 107.494 13.202C107.718 13.6593 107.83 14.1493 107.83 14.672C107.83 15.3347 107.681 15.8947 107.382 16.352C107.083 16.8 106.691 17.1407 106.206 17.374C105.73 17.598 105.212 17.71 104.652 17.71H103.21V21H101.152ZM103.21 16.002H104.442C104.825 16.002 105.133 15.8807 105.366 15.638C105.599 15.3953 105.716 15.0873 105.716 14.714C105.716 14.322 105.599 14.0047 105.366 13.762C105.133 13.51 104.82 13.384 104.428 13.384H103.21V16.002ZM107.036 21V18.774H109.318V21H107.036Z" fill="white"/>
<path d="M0.790309 23.7068L10.2747 8.18684C10.6062 7.64448 11.3938 7.64448 11.7253 8.18684L21.2097 23.7068C21.5558 24.2732 21.1482 25 20.4844 25H1.5156C0.851808 25 0.444175 24.2732 0.790309 23.7068Z" fill="white"/>
<path d="M13.04 76.24H13.06V61.62H11.92V72.32C11.92 72.7 11.92 73.02 11.94 73.24C11.86 73.12 11.68 72.92 11.54 72.74L2.14 61.36H2.12V76H3.28V65.28C3.28 64.9 3.26 64.6 3.24 64.36C3.32 64.5 3.5 64.7 3.64 64.86L13.04 76.24ZM21.4158 65.76C18.5358 65.76 16.3958 68 16.3958 71C16.3958 74 18.5358 76.24 21.4158 76.24C24.2958 76.24 26.4358 74 26.4358 71C26.4358 68 24.2958 65.76 21.4158 65.76ZM21.4158 75.22C19.1358 75.22 17.5158 73.44 17.5158 71C17.5158 68.56 19.1358 66.78 21.4158 66.78C23.6958 66.78 25.3158 68.56 25.3158 71C25.3158 73.44 23.6958 75.22 21.4158 75.22ZM28.1963 66V66.94H29.9963V73.24C29.9963 75.52 31.2763 76.24 32.5963 76.24C33.4763 76.24 34.2563 76.02 34.7163 75.76V74.76C34.0963 75.08 33.3363 75.24 32.7363 75.24C31.7763 75.24 31.0963 74.66 31.0963 73.02V66.94H34.3563V66H31.0963V63H29.9963V66H28.1963ZM36.7619 63.08C36.7619 63.54 37.1019 63.88 37.5819 63.88C38.0419 63.88 38.4019 63.54 38.4019 63.08C38.4019 62.6 38.0419 62.26 37.5819 62.26C37.1019 62.26 36.7619 62.6 36.7619 63.08ZM37.0219 66V76H38.1219V66H37.0219ZM40.9748 66V66.94H42.5748V76H43.6948V66.94H46.5348V66H43.6748V64.76C43.6748 63.18 44.4748 62.38 45.9748 62.38C46.4548 62.38 46.8548 62.46 47.0148 62.5V61.48C46.8548 61.44 46.3748 61.36 45.8748 61.36C43.8148 61.36 42.5948 62.64 42.5948 64.72V66H40.9748ZM48.5978 63.08C48.5978 63.54 48.9378 63.88 49.4178 63.88C49.8778 63.88 50.2378 63.54 50.2378 63.08C50.2378 62.6 49.8778 62.26 49.4178 62.26C48.9378 62.26 48.5978 62.6 48.5978 63.08ZM48.8578 66V76H49.9578V66H48.8578ZM54.6061 71C54.6061 68.58 56.2261 66.8 58.5661 66.8C60.0261 66.8 60.9661 67.26 61.7261 67.72V66.58C60.9861 66.2 60.0661 65.76 58.5261 65.76C55.5861 65.76 53.4661 68 53.4661 71C53.4661 74 55.5861 76.24 58.5261 76.24C60.0861 76.24 61.0461 75.8 61.7861 75.42V74.28C61.0461 74.74 60.0461 75.2 58.5661 75.2C56.2261 75.2 54.6061 73.42 54.6061 71ZM64.9217 67.62C65.4417 67.3 66.7417 66.78 68.2217 66.78C69.9817 66.78 71.1417 67.5 71.1417 69.6V70.36C67.0217 69.74 64.3017 70.98 64.3017 73.5C64.3017 75.12 65.5417 76.24 67.3817 76.24C69.9617 76.24 71.2017 73.84 71.2017 73.76H71.2417C71.2417 73.76 71.1617 74.12 71.1817 74.64V76H72.2417V69.56C72.2417 67.06 70.9817 65.76 68.3217 65.76C66.7617 65.76 65.4817 66.22 64.9217 66.52V67.62ZM67.5017 75.24C66.2417 75.24 65.4417 74.5 65.4417 73.44C65.4417 71.64 67.5617 70.68 71.1417 71.26C71.1417 73.16 69.6017 75.24 67.5017 75.24ZM74.8955 66V66.94H76.6955V73.24C76.6955 75.52 77.9755 76.24 79.2955 76.24C80.1755 76.24 80.9555 76.02 81.4155 75.76V74.76C80.7955 75.08 80.0355 75.24 79.4355 75.24C78.4755 75.24 77.7955 74.66 77.7955 73.02V66.94H81.0555V66H77.7955V63H76.6955V66H74.8955ZM83.4611 63.08C83.4611 63.54 83.8011 63.88 84.2811 63.88C84.7411 63.88 85.1011 63.54 85.1011 63.08C85.1011 62.6 84.7411 62.26 84.2811 62.26C83.8011 62.26 83.4611 62.6 83.4611 63.08ZM83.7211 66V76H84.8211V66H83.7211ZM93.1541 65.76C90.2741 65.76 88.1341 68 88.1341 71C88.1341 74 90.2741 76.24 93.1541 76.24C96.0341 76.24 98.1741 74 98.1741 71C98.1741 68 96.0341 65.76 93.1541 65.76ZM93.1541 75.22C90.8741 75.22 89.2541 73.44 89.2541 71C89.2541 68.56 90.8741 66.78 93.1541 66.78C95.4341 66.78 97.0541 68.56 97.0541 71C97.0541 73.44 95.4341 75.22 93.1541 75.22ZM101.495 66V76H102.595V71.1C102.595 68.68 104.315 66.82 106.575 66.82C108.675 66.82 108.895 68.36 108.895 70V76H109.995V69.68C109.995 67.28 109.235 65.76 106.675 65.76C104.275 65.76 102.895 67.54 102.535 68.48H102.495C102.515 68.46 102.575 68.12 102.575 67.66V66H101.495ZM118.558 73.58C118.558 74.74 117.378 75.24 116.098 75.24C115.138 75.24 113.938 74.96 112.898 74.48V75.58C113.758 75.98 114.958 76.24 116.158 76.24C118.118 76.24 119.638 75.38 119.638 73.56C119.638 71.98 118.558 71.18 116.398 70.5C114.778 69.98 113.938 69.46 113.938 68.44C113.938 67.38 114.878 66.76 116.398 66.76C117.258 66.76 118.278 67.04 119.058 67.44V66.36C118.298 66 117.238 65.76 116.298 65.76C114.298 65.76 112.858 66.78 112.858 68.44C112.858 70.06 114.218 70.92 115.938 71.46C117.718 72 118.558 72.46 118.558 73.58Z" fill="#E6E6E6"/>
<defs>
<clipPath id="clip0_32_264">
<rect width="14" height="14" fill="white" transform="translate(199 9)"/>
</clipPath>
<clipPath id="clip1_32_264">
<rect width="17.9045" height="17.9045" fill="white" transform="translate(241.459 5.35938) rotate(15)"/>
</clipPath>
</defs>
</svg>

<svg width="264" height="77" fill="none" xmlns="http://www.w3.org/2000/svg"><path fill="#262626" d="M0 42h264v1H0z"/><circle cx="206" cy="16" r="15.688" stroke="#333" stroke-width=".625"/><g clip-path="url(#a)"><path d="M204.249 9c-3.062.788-5.25 3.588-5.25 6.913a7.058 7.058 0 0 0 7.088 7.088c3.325 0 6.037-2.188 6.912-5.25-5.337 1.487-10.237-3.413-8.75-8.75z" fill="#fff"/></g><circle cx="164" cy="16" r="15.688" stroke="#333" stroke-width=".625"/><circle cx="162.5" cy="14.5" r="4.563" stroke="#fff" stroke-width="1.875"/><path d="m166 18 4 4" stroke="#fff" stroke-width="1.875" stroke-linecap="round"/><circle cx="248" cy="16" r="16" fill="#fff"/><g clip-path="url(#b)" fill="#000"><path d="M253.553 23.773c-.012-.028-1.195-2.878-.648-4.92l1.014-3.783a5.596 5.596 0 0 0-10.809-2.896l-1.014 3.783c-.547 2.042-2.997 3.918-3.021 3.936a.281.281 0 0 0-.106.277.277.277 0 0 0 .202.217l14.052 3.765a.279.279 0 0 0 .33-.38zM244.181 22.31a1.954 1.954 0 0 0 2.796 1.99c.424-.205.758-.556.944-.989l-3.74-1.002z"/></g><circle cx="253.375" cy="9.375" r="4.125" fill="#E300BD" stroke="#fff" stroke-width="2"/><path d="m29.098 21 3.486-9.338h2.338L38.338 21h-2.31l-.714-2.142h-3.29L31.31 21h-2.212zm3.416-3.78h2.296l-1.134-3.528-1.162 3.528zm13.672.742 1.442 1.316a4.591 4.591 0 0 1-1.008.98 5.083 5.083 0 0 1-1.358.714 4.86 4.86 0 0 1-1.624.266c-.943 0-1.778-.21-2.506-.63a4.546 4.546 0 0 1-1.694-1.722c-.402-.737-.602-1.577-.602-2.52 0-.69.116-1.335.35-1.932.233-.607.56-1.134.98-1.582.43-.448.938-.798 1.526-1.05a5.028 5.028 0 0 1 1.974-.378c.858 0 1.614.159 2.268.476a4.271 4.271 0 0 1 1.624 1.372l-1.442 1.386a3.384 3.384 0 0 0-.994-.938c-.383-.243-.84-.364-1.372-.364-.56 0-1.046.135-1.456.406a2.662 2.662 0 0 0-.938 1.064 3.39 3.39 0 0 0-.322 1.484c0 .55.107 1.045.322 1.484.224.439.536.789.938 1.05.401.252.872.378 1.414.378.448 0 .821-.06 1.12-.182.298-.121.55-.275.756-.462.214-.196.415-.401.602-.616zM48.856 21l.433-9.338h2.002l2.436 4.382 2.38-4.382h2.016L58.557 21h-2.114l-.266-6.104-1.932 3.64h-1.092l-2.044-3.598L50.871 21h-2.016zM60.5 21v-9.338h6.384v1.848h-4.27v1.82h3.318v1.792h-3.318v2.016h4.578V21H60.5zm18.196-3.038 1.442 1.316a4.587 4.587 0 0 1-1.008.98 5.082 5.082 0 0 1-1.358.714 4.86 4.86 0 0 1-1.624.266c-.942 0-1.778-.21-2.506-.63a4.547 4.547 0 0 1-1.694-1.722c-.4-.737-.602-1.577-.602-2.52 0-.69.117-1.335.35-1.932.234-.607.56-1.134.98-1.582.43-.448.938-.798 1.526-1.05a5.028 5.028 0 0 1 1.974-.378c.86 0 1.615.159 2.268.476a4.27 4.27 0 0 1 1.624 1.372l-1.442 1.386a3.383 3.383 0 0 0-.994-.938c-.382-.243-.84-.364-1.372-.364-.56 0-1.045.135-1.456.406a2.663 2.663 0 0 0-.938 1.064 3.39 3.39 0 0 0-.322 1.484c0 .55.108 1.045.322 1.484.224.439.537.789.938 1.05.402.252.873.378 1.414.378.448 0 .822-.06 1.12-.182a2.52 2.52 0 0 0 .756-.462c.215-.196.416-.401.602-.616zm7.072 3.276c-.691 0-1.33-.121-1.918-.364a4.915 4.915 0 0 1-1.554-1.05 4.798 4.798 0 0 1-1.022-1.568 5.083 5.083 0 0 1-.364-1.932c0-.7.12-1.344.364-1.932a4.798 4.798 0 0 1 1.022-1.568 4.574 4.574 0 0 1 1.54-1.036 4.919 4.919 0 0 1 1.932-.378c.69 0 1.33.126 1.918.378a4.574 4.574 0 0 1 1.54 1.036c.448.448.793.97 1.036 1.568.242.588.364 1.232.364 1.932 0 .69-.122 1.335-.364 1.932a4.69 4.69 0 0 1-1.036 1.568 4.753 4.753 0 0 1-1.54 1.05 4.978 4.978 0 0 1-1.918.364zm0-1.988c.55 0 1.022-.135 1.414-.406.4-.27.704-.63.91-1.078.214-.448.322-.938.322-1.47s-.108-1.017-.322-1.456a2.468 2.468 0 0 0-.91-1.064c-.392-.27-.864-.406-1.414-.406-.551 0-1.027.135-1.428.406a2.599 2.599 0 0 0-.91 1.064 3.267 3.267 0 0 0-.322 1.456c0 .532.107 1.022.322 1.47.214.448.518.807.91 1.078.4.27.877.406 1.428.406zm6.6 1.75v-9.338h3.472c.728 0 1.335.135 1.82.406.485.261.85.616 1.092 1.064.243.439.364.924.364 1.456 0 .597-.135 1.125-.406 1.582a2.866 2.866 0 0 1-1.12 1.092L99.662 21h-2.324l-1.736-3.43h-1.176V21h-2.058zm2.058-5.124h1.302c.392 0 .7-.117.924-.35.224-.233.336-.527.336-.882 0-.383-.117-.686-.35-.91-.224-.224-.527-.336-.91-.336h-1.302v2.478zM101.152 21v-9.338h3.402c.775 0 1.4.145 1.876.434.485.28.84.649 1.064 1.106.224.457.336.947.336 1.47 0 .663-.149 1.223-.448 1.68a2.902 2.902 0 0 1-1.176 1.022 3.603 3.603 0 0 1-1.554.336h-1.442V21h-2.058zm2.058-4.998h1.232c.383 0 .691-.121.924-.364.233-.243.35-.55.35-.924 0-.392-.117-.71-.35-.952-.233-.252-.546-.378-.938-.378h-1.218v2.618zM107.036 21v-2.226h2.282V21h-2.282zM.79 23.707l9.485-15.52a.85.85 0 0 1 1.45 0l9.485 15.52A.85.85 0 0 1 20.484 25H1.516a.85.85 0 0 1-.726-1.293z" fill="#fff"/><path d="M13.04 76.24h.02V61.62h-1.14v10.7c0 .38 0 .7.02.92-.08-.12-.26-.32-.4-.5l-9.4-11.38h-.02V76h1.16V65.28c0-.38-.02-.68-.04-.92.08.14.26.34.4.5l9.4 11.38zm8.376-10.48c-2.88 0-5.02 2.24-5.02 5.24s2.14 5.24 5.02 5.24c2.88 0 5.02-2.24 5.02-5.24s-2.14-5.24-5.02-5.24zm0 9.46c-2.28 0-3.9-1.78-3.9-4.22 0-2.44 1.62-4.22 3.9-4.22s3.9 1.78 3.9 4.22c0 2.44-1.62 4.22-3.9 4.22zm6.78-9.22v.94h1.8v6.3c0 2.28 1.28 3 2.6 3 .88 0 1.66-.22 2.12-.48v-1c-.62.32-1.38.48-1.98.48-.96 0-1.64-.58-1.64-2.22v-6.08h3.26V66h-3.26v-3h-1.1v3h-1.8zm8.566-2.92c0 .46.34.8.82.8.46 0 .82-.34.82-.8 0-.48-.36-.82-.82-.82-.48 0-.82.34-.82.82zm.26 2.92v10h1.1V66h-1.1zm3.953 0v.94h1.6V76h1.12v-9.06h2.84V66h-2.86v-1.24c0-1.58.8-2.38 2.3-2.38.48 0 .88.08 1.04.12v-1.02a5.55 5.55 0 0 0-1.14-.12c-2.06 0-3.28 1.28-3.28 3.36V66h-1.62zm7.623-2.92c0 .46.34.8.82.8.46 0 .82-.34.82-.8 0-.48-.36-.82-.82-.82-.48 0-.82.34-.82.82zm.26 2.92v10h1.1V66h-1.1zm5.748 5c0-2.42 1.62-4.2 3.96-4.2 1.46 0 2.4.46 3.16.92v-1.14c-.74-.38-1.66-.82-3.2-.82-2.94 0-5.06 2.24-5.06 5.24s2.12 5.24 5.06 5.24c1.56 0 2.52-.44 3.26-.82v-1.14c-.74.46-1.74.92-3.22.92-2.34 0-3.96-1.78-3.96-4.2zm10.316-3.38c.52-.32 1.82-.84 3.3-.84 1.76 0 2.92.72 2.92 2.82v.76c-4.12-.62-6.84.62-6.84 3.14 0 1.62 1.24 2.74 3.08 2.74 2.58 0 3.82-2.4 3.82-2.48h.04s-.08.36-.06.88V76h1.06v-6.44c0-2.5-1.26-3.8-3.92-3.8-1.56 0-2.84.46-3.4.76v1.1zm2.58 7.62c-1.26 0-2.06-.74-2.06-1.8 0-1.8 2.12-2.76 5.7-2.18 0 1.9-1.54 3.98-3.64 3.98zM74.896 66v.94h1.8v6.3c0 2.28 1.28 3 2.6 3 .88 0 1.66-.22 2.12-.48v-1c-.62.32-1.38.48-1.98.48-.96 0-1.64-.58-1.64-2.22v-6.08h3.26V66h-3.26v-3h-1.1v3h-1.8zm8.565-2.92c0 .46.34.8.82.8.46 0 .82-.34.82-.8 0-.48-.36-.82-.82-.82-.48 0-.82.34-.82.82zm.26 2.92v10h1.1V66h-1.1zm9.433-.24c-2.88 0-5.02 2.24-5.02 5.24s2.14 5.24 5.02 5.24c2.88 0 5.02-2.24 5.02-5.24s-2.14-5.24-5.02-5.24zm0 9.46c-2.28 0-3.9-1.78-3.9-4.22 0-2.44 1.62-4.22 3.9-4.22s3.9 1.78 3.9 4.22c0 2.44-1.62 4.22-3.9 4.22zm8.341-9.22v10h1.1v-4.9c0-2.42 1.72-4.28 3.98-4.28 2.1 0 2.32 1.54 2.32 3.18v6h1.1v-6.32c0-2.4-.76-3.92-3.32-3.92-2.4 0-3.78 1.78-4.14 2.72h-.04c.02-.02.08-.36.08-.82V66h-1.08zm17.063 7.58c0 1.16-1.18 1.66-2.46 1.66-.96 0-2.16-.28-3.2-.76v1.1c.86.4 2.06.66 3.26.66 1.96 0 3.48-.86 3.48-2.68 0-1.58-1.08-2.38-3.24-3.06-1.62-.52-2.46-1.04-2.46-2.06 0-1.06.94-1.68 2.46-1.68.86 0 1.88.28 2.66.68v-1.08c-.76-.36-1.82-.6-2.76-.6-2 0-3.44 1.02-3.44 2.68 0 1.62 1.36 2.48 3.08 3.02 1.78.54 2.62 1 2.62 2.12z" fill="#E6E6E6"/><defs><clipPath id="a"><path fill="#fff" transform="translate(199 9)" d="M0 0h14v14H0z"/></clipPath><clipPath id="b"><path fill="#fff" transform="rotate(15 100.375 919.711)" d="M0 0h17.904v17.904H0z"/></clipPath></defs></svg>
